ui/Images/auto-hide-on.svg

<?xml version="1.0" encoding="UTF-8" standalone="no"?>
<svg
   version="1.0"
   viewBox="0 0 512 512"
   id="svg9"
   sodipodi:docname="auto-hide-on.svg"
   inkscape:version="1.4 (e7c3feb100, 2024-10-09)"
   xmlns:inkscape="http://www.inkscape.org/namespaces/inkscape"
   xmlns:sodipodi="http://sodipodi.sourceforge.net/DTD/sodipodi-0.dtd"
   xmlns="http://www.w3.org/2000/svg"
   xmlns:svg="http://www.w3.org/2000/svg">
  <defs
     id="defs9" />
  <sodipodi:namedview
     id="namedview9"
     pagecolor="#ffffff"
     bordercolor="#000000"
     borderopacity="0.25"
     inkscape:showpageshadow="2"
     inkscape:pageopacity="0.0"
     inkscape:pagecheckerboard="0"
     inkscape:deskcolor="#d1d1d1"
     inkscape:zoom="0.67050848"
     inkscape:cx="240.86198"
     inkscape:cy="39.522244"
     inkscape:window-width="2192"
     inkscape:window-height="1154"
     inkscape:window-x="0"
     inkscape:window-y="0"
     inkscape:window-maximized="1"
     inkscape:current-layer="g9" />
  <g
     transform="translate(42.6 36.8) scale(19.4)"
     id="g9">
    <path
       d="m 6.7573664,19.946647 c -0.39053,-0.3905 -0.39053,-1.0237 0,-1.4142 0.39052,-0.3905 1.0236897,-0.3905 1.4142097,0 l 2.8283799,2.8284 2.8285,-2.8285 c 0.3905,-0.3905 1.0237,-0.3905 1.4142,0 0.3905,0.3905 0.3905,1.0237 0,1.4142 l -2.8284,2.8284 c 0,0 0,0 0,0 -0.7811,0.7811 -2.0474,0.7812 -2.8284999,10e-5 z"
       fill="#dfdcd3"
       id="path9" />
    <g
       id="g10"
       transform="matrix(0.99906279,0,0,1,-0.99390815,0.98634021)">
      <path
         d="M 5,6 C 5,5.44771 5.44772,5 6,5 6.55229,5 7,5.44771 7,6 7,6.55228 6.55229,7 6,7 5.44772,7 5,6.55228 5,6 Z"
         fill="#dfdcd3"
         id="path1-9" />
      <path
         d="M 5,10 C 5,9.44771 5.44772,9 6,9 6.55229,9 7,9.44771 7,10 7,10.5523 6.55229,11 6,11 5.44772,11 5,10.5523 5,10 Z"
         fill="#dfdcd3"
         id="path2-1" />
      <path
         d="m 10,9 c -0.55228,0 -1,0.44771 -1,1 0,0.5523 0.44772,1 1,1 h 4 c 0.5523,0 1,-0.4477 1,-1 0,-0.55229 -0.4477,-1 -1,-1 z"
         fill="#dfdcd3"
         id="path3-2" />
      <path
         d="m 17,10 c 0,-0.55229 0.4477,-1 1,-1 0.5523,0 1,0.44771 1,1 0,0.5523 -0.4477,1 -1,1 -0.5523,0 -1,-0.4477 -1,-1 z"
         fill="#dfdcd3"
         id="path4-7" />
      <path
         d="M 9,6 C 9,5.44771 9.44771,5 10,5 10.5523,5 11,5.44771 11,6 11,6.55228 10.5523,7 10,7 9.44771,7 9,6.55228 9,6 Z"
         fill="#dfdcd3"
         id="path5-0" />
      <path
         d="m 13,6 c 0,-0.55229 0.4477,-1 1,-1 0.5523,0 1,0.44771 1,1 0,0.55228 -0.4477,1 -1,1 -0.5523,0 -1,-0.44772 -1,-1 z"
         fill="#dfdcd3"
         id="path6-9" />
      <path
         d="m 17,6 c 0,-0.55229 0.4477,-1 1,-1 0.5523,0 1,0.44771 1,1 0,0.55228 -0.4477,1 -1,1 -0.5523,0 -1,-0.44772 -1,-1 z"
         fill="#dfdcd3"
         id="path7-3" />
      <path
         fill-rule="evenodd"
         clip-rule="evenodd"
         d="m 20,1 c 1.6569,0 3,1.34315 3,3 v 8 c 0,1.6569 -1.3431,3 -3,3 H 4 C 2.34315,15 1,13.6569 1,12 V 4 C 1,2.34315 2.34315,1 4,1 Z m 0,2 c 0.5523,0 1,0.44771 1,1 v 8 c 0,0.5523 -0.4477,1 -1,1 H 4 C 3.44772,13 3,12.5523 3,12 V 4 C 3,3.44772 3.44772,3 4,3 Z"
         fill="#dfdcd3"
         id="path8" />
    </g>
  </g>
</svg>

<?xml version="1.0" encoding="utf-8"?>
<svg version="1.0" xmlns="http://www.w3.org/2000/svg" viewBox="0 0 512 512">
<g transform="translate(42.6 36.8) scale(19.4)">
<path d="M5 6C5 5.44771 5.44772 5 6 5C6.55229 5 7 5.44771 7 6C7 6.55228 6.55229 7 6 7C5.44772 7 5 6.55228 5 6Z" fill="#dfdcd3"/>
<path d="M5 10C5 9.44771 5.44772 9 6 9C6.55229 9 7 9.44771 7 10C7 10.5523 6.55229 11 6 11C5.44772 11 5 10.5523 5 10Z" fill="#dfdcd3"/>
<path d="M10 9C9.44772 9 9 9.44771 9 10C9 10.5523 9.44772 11 10 11H14C14.5523 11 15 10.5523 15 10C15 9.44771 14.5523 9 14 9H10Z" fill="#dfdcd3"/>
<path d="M17 10C17 9.44771 17.4477 9 18 9C18.5523 9 19 9.44771 19 10C19 10.5523 18.5523 11 18 11C17.4477 11 17 10.5523 17 10Z" fill="#dfdcd3"/>
<path d="M9 6C9 5.44771 9.44771 5 10 5C10.5523 5 11 5.44771 11 6C11 6.55228 10.5523 7 10 7C9.44771 7 9 6.55228 9 6Z" fill="#dfdcd3"/>
<path d="M13 6C13 5.44771 13.4477 5 14 5C14.5523 5 15 5.44771 15 6C15 6.55228 14.5523 7 14 7C13.4477 7 13 6.55228 13 6Z" fill="#dfdcd3"/>
<path d="M17 6C17 5.44771 17.4477 5 18 5C18.5523 5 19 5.44771 19 6C19 6.55228 18.5523 7 18 7C17.4477 7 17 6.55228 17 6Z" fill="#dfdcd3"/>
<path fill-rule="evenodd" clip-rule="evenodd" d="M20 1C21.6569 1 23 2.34315 23 4V12C23 13.6569 21.6569 15 20 15H4C2.34315 15 1 13.6569 1 12V4C1 2.34315 2.34315 1 4 1H20ZM20 3C20.5523 3 21 3.44771 21 4V12C21 12.5523 20.5523 13 20 13H4C3.44772 13 3 12.5523 3 12V4C3 3.44772 3.44772 3 4 3H20Z" fill="#dfdcd3"/>
<path d="M7.70711 19.7574C7.31658 19.3669 7.31658 18.7337 7.70711 18.3432C8.09763 17.9527 8.7308 17.9527 9.12132 18.3432L11.9497 21.1716L14.7782 18.3431C15.1687 17.9526 15.8019 17.9526 16.1924 18.3431C16.5829 18.7336 16.5829 19.3668 16.1924 19.7573L13.364 22.5857C13.364 22.5857 13.364 22.5857 13.364 22.5857C12.5829 23.3668 11.3166 23.3669 10.5355 22.5858L7.70711 19.7574Z" fill="#dfdcd3"/>
</g>
</svg>
